build/img/arrow-next.svg

<svg width="34" height="23" viewBox="0 0 34 23" fill="none" xmlns="http://www.w3.org/2000/svg">
<path d="M33.0607 12.4413C33.6464 11.8555 33.6464 10.9058 33.0607 10.32L23.5147 0.774053C22.9289 0.188266 21.9792 0.188265 21.3934 0.774051C20.8076 1.35984 20.8076 2.30958 21.3934 2.89537L29.8787 11.3807L21.3934 19.8659C20.8076 20.4517 20.8076 21.4015 21.3934 21.9873C21.9792 22.573 22.9289 22.573 23.5147 21.9873L33.0607 12.4413ZM-1.54902e-06 12.8806L32 12.8807L32 9.88066L1.54902e-06 9.88063L-1.54902e-06 12.8806Z" fill="white"/>
</svg>

<svg xmlns="http://www.w3.org/2000/svg" width="34" height="23" fill="none"><path d="M33.06 12.44a1.5 1.5 0 0 0 0-2.121L23.515.774a1.5 1.5 0 0 0-2.121 0 1.5 1.5 0 0 0 0 2.121l8.485 8.485-8.485 8.485a1.5 1.5 0 1 0 2.121 2.121l9.546-9.546zM0 12.88h32v-3H0v3z" fill="#fff"/></svg>
